X: 29742
T: Nyth Y Gwcw
R: barndance
M: 4/4
K: Edorian
|:F2|GFGF E2 e2|B2 B2 B2 A2|GFGF E2 Bc|d2 d2 d2 F2|
G2 GF E2 ed|B=c/B/ Bc/B/ A2 BA|GFGF EFGA|B2 B2 e2:|
|:^d2|efgf e2 ec|d=cB^A B2 B/^c/d|efga b2 b2|a2 e2 e3 f|
gfe^d e2 fe|d>=cB^A B2 A2|GFE^D E>FGA|B2 B2 e2:|

